public/assets/images/others/icon/01.svg

<svg width="40" height="40" viewBox="0 0 40 40" fill="none" xmlns="http://www.w3.org/2000/svg">
<g clip-path="url(#clip0_782_13549)">
<path d="M39.3585 26.607C38.8935 25.7889 38.0992 25.2039 37.1804 25.002C36.281 24.8038 35.3329 24.9895 34.5742 25.5126L31.9873 26.9645C30.3923 27.8595 28.9785 28.7482 27.6929 29.6651C27.9323 29.1739 27.9873 28.6745 27.8404 28.202C27.6229 27.5014 26.8879 26.6339 24.6198 26.4801C19.9535 26.1651 19.0729 25.2995 18.9873 25.202C18.4792 24.6195 17.9585 24.1839 17.3967 23.8701C10.8992 20.2407 4.67417 25.6932 4.41229 25.9276L4.41167 25.9282L0.779791 27.7876C0.556041 27.902 0.387916 28.1014 0.312291 28.342C0.237291 28.582 0.261666 28.842 0.379791 29.0639L5.29792 38.2739C5.41979 38.5026 5.63167 38.6714 5.88229 38.7382C5.96229 38.7595 6.04417 38.7701 6.12542 38.7701C6.29854 38.7701 6.47042 38.722 6.62042 38.6282L10.2867 36.3482C10.2992 36.3407 10.3092 36.3301 10.321 36.322C10.3342 36.3151 10.3492 36.3101 10.3623 36.3026C10.6692 36.1339 11.0379 36.1332 11.3523 36.3007C15.7923 38.6626 18.5285 39.1864 20.0823 39.1864C20.451 39.1864 20.7535 39.157 20.996 39.1157C21.901 39.0695 29.9242 38.442 38.2179 30.7251L38.8967 30.0464C39.8042 29.1364 39.9942 27.7226 39.3585 26.607ZM6.47979 36.5064L2.48292 29.0213L4.57667 27.9495L8.54417 35.2232L6.47979 36.5064ZM37.5492 28.7401L36.9154 29.3751C28.8648 36.8645 20.9367 37.2407 20.8592 37.2439C20.811 37.2451 20.7635 37.2507 20.716 37.2595C19.9242 37.4095 17.5135 37.4545 12.2323 34.6439C11.7992 34.4132 11.3273 34.2982 10.856 34.2982C10.6585 34.2982 10.4604 34.3182 10.2654 34.3595L6.23479 26.8739C7.77104 25.7507 12.1529 23.0882 16.4823 25.5064C16.8529 25.7139 17.2104 26.017 17.5742 26.4339C18.4773 27.4701 20.7404 28.097 24.4929 28.3501C25.5973 28.4251 26.0017 28.687 26.046 28.7351C26.0448 28.7914 25.9367 29.0832 25.416 29.4957C24.1667 30.5264 20.8454 31.692 17.2567 30.4307C16.8267 30.2795 16.3485 30.4607 16.1267 30.8595C15.9048 31.2589 16.0029 31.7595 16.3585 32.0457C16.5054 32.1457 16.6635 32.217 16.8273 32.2782C17.4367 32.5051 18.0704 32.6582 18.7179 32.7145C25.4698 33.302 28.6342 31.2632 28.6342 31.2632L32.9048 28.5989L35.5323 27.1245C35.5617 27.1076 35.591 27.0895 35.6185 27.0701C35.9579 26.8276 36.3704 26.7432 36.7773 26.8332C37.1748 26.9207 37.506 27.1601 37.7142 27.5089C37.9342 27.877 37.8523 28.4357 37.5492 28.7401Z" fill="#132A64"/>
<path d="M24.3722 15.2351C26.5378 15.2351 28.2997 13.4733 28.2997 11.3076C28.2997 9.142 26.5378 7.38013 24.3722 7.38013C22.2066 7.38013 20.4453 9.142 20.4453 11.3076C20.4453 13.4733 22.2066 15.2351 24.3722 15.2351ZM24.3722 9.25513C25.5041 9.25513 26.4247 10.1758 26.4247 11.3076C26.4247 12.4395 25.5034 13.3601 24.3722 13.3601C23.2409 13.3601 22.3203 12.4395 22.3203 11.3076C22.3203 10.1758 23.2409 9.25513 24.3722 9.25513Z" fill="#132A64"/>
<path d="M15.2886 13.622L15.9699 13.7926C16.0761 14.1532 16.2061 14.507 16.3592 14.8513L15.9599 15.3957C15.4524 16.087 15.4836 17.0288 16.0355 17.6857L16.7086 18.487C17.2599 19.1426 18.1824 19.3357 18.9511 18.9557L19.5811 18.6432C20.2955 19.112 21.0667 19.4688 21.8842 19.7101L22.0411 20.3663C22.2386 21.2007 22.9761 21.7863 23.8349 21.7913L24.8805 21.797H24.8917C25.7442 21.797 26.4836 21.2207 26.6905 20.3913L26.8605 19.7101C27.6236 19.4851 28.3467 19.1588 29.0211 18.7345L29.6167 19.0526C30.3724 19.457 31.2999 19.2926 31.8724 18.6532L32.5699 17.8732C33.1411 17.2345 33.2017 16.2945 32.7161 15.587L32.3161 15.0045C32.498 14.6138 32.6511 14.2101 32.773 13.7957L33.4492 13.6313C34.2811 13.4282 34.8636 12.6882 34.8649 11.8301V10.7838C34.8649 9.92633 34.283 9.1857 33.4511 8.98258L32.773 8.81695C32.6661 8.45695 32.5367 8.10383 32.3849 7.76133L32.793 7.1982C33.2967 6.5032 33.2592 5.56195 32.7042 4.90945L32.0267 4.11195C31.4711 3.45883 30.5486 3.27133 29.7817 3.65508L29.158 3.9682C28.4436 3.5007 27.6736 3.14508 26.8574 2.90445L26.6924 2.2282C26.488 1.3957 25.7467 0.814453 24.8905 0.814453H23.8442C22.988 0.814453 22.2467 1.3957 22.0424 2.22945L21.8767 2.90695C21.1205 3.13008 20.403 3.45383 19.7336 3.87258L19.1174 3.54758C18.3586 3.14758 17.4324 3.31633 16.8642 3.95883L16.1705 4.74258C15.6024 5.38445 15.5467 6.32445 16.0361 7.02945L16.4317 7.59945C16.248 7.9932 16.093 8.40008 15.9699 8.81633L15.3124 8.97258C14.4786 9.1707 13.8924 9.90883 13.8874 10.7657L13.8811 11.812C13.8792 12.6695 14.4567 13.4138 15.2886 13.622ZM16.9542 10.5101C17.303 10.427 17.5742 10.152 17.6524 9.80258C17.7949 9.16445 18.028 8.55133 18.3442 7.97883C18.5167 7.66633 18.4974 7.2832 18.2936 6.99008L17.5767 5.9857L18.2455 5.20633L19.3574 5.79258C19.6724 5.95945 20.0555 5.93195 20.3442 5.7232C21.1036 5.17445 21.9511 4.79195 22.863 4.5882C23.2111 4.51008 23.4842 4.24195 23.5686 3.8957L23.8467 2.69008L24.8736 2.67383L25.1711 3.89383C25.2555 4.2407 25.5292 4.50945 25.878 4.58695C26.8386 4.8007 27.7261 5.21133 28.5155 5.80633C28.8005 6.0207 29.1811 6.05508 29.5005 5.8957L30.5999 5.32633L31.2767 6.0982L30.5392 7.11508C30.3299 7.40383 30.303 7.78695 30.4699 8.1032C30.7511 8.63695 30.9617 9.2082 31.0942 9.8007C31.1724 10.1482 31.4405 10.422 31.7861 10.5063L32.9917 10.8007L33.0074 11.8107L31.7874 12.1076C31.4405 12.192 31.1717 12.4657 31.0942 12.8145C30.9524 13.4488 30.7217 14.0582 30.4092 14.6257C30.238 14.9363 30.2567 15.3163 30.4574 15.6088L31.1736 16.6245L30.5017 17.3995L29.408 16.8151C29.0905 16.6463 28.7061 16.6726 28.4149 16.8832C27.6517 17.4376 26.7992 17.8226 25.8817 18.0276C25.5355 18.1051 25.2624 18.3713 25.1767 18.7157L24.8917 19.9213L23.8655 19.9313L23.578 18.7257C23.4949 18.377 23.2199 18.1063 22.8699 18.0282C21.908 17.8145 21.0199 17.4032 20.2299 16.807C20.0636 16.682 19.8655 16.6176 19.6649 16.6176C19.523 16.6176 19.3805 16.6495 19.2486 16.7151L18.1442 17.2801L17.4717 16.5045L18.2042 15.5051C18.4161 15.2157 18.4449 14.8307 18.2774 14.5138C17.9942 13.9763 17.7836 13.4051 17.6524 12.8138C17.5749 12.4676 17.3086 12.1945 16.9642 12.1082L15.758 11.8226L15.748 10.7963L16.9542 10.5101Z" fill="#132A64"/>
</g>
<defs>
<clipPath id="clip0_782_13549">
<rect width="40" height="40" fill="white"/>
</clipPath>
</defs>
</svg>

<svg xmlns="http://www.w3.org/2000/svg" width="40" height="40" fill="none" viewBox="0 0 40 40"><g fill="#132a64" clip-path="url(#a)"><path d="M39.359 26.607a3.33 3.33 0 0 0-4.785-1.094l-2.587 1.451a47 47 0 0 0-4.294 2.701c.24-.491.294-.99.147-1.463-.217-.7-.952-1.568-3.22-1.722-4.667-.315-5.547-1.18-5.633-1.278-.508-.583-1.028-1.018-1.59-1.332-6.498-3.63-12.723 1.823-12.985 2.058L.78 27.788a.937.937 0 0 0-.4 1.276l4.918 9.21a.936.936 0 0 0 1.322.354l3.667-2.28.034-.026.041-.02c.307-.168.676-.169.99-.001 4.44 2.362 7.177 2.885 8.73 2.885a5.5 5.5 0 0 0 .914-.07c.905-.047 8.928-.674 17.222-8.39l.679-.68a2.87 2.87 0 0 0 .462-3.439m-32.88 9.9L2.484 29.02l2.094-1.072 3.967 7.274zm31.07-7.767-.634.635c-8.05 7.49-15.978 7.866-16.056 7.869a1 1 0 0 0-.143.016c-.792.15-3.203.195-8.484-2.616a2.92 2.92 0 0 0-1.967-.285l-4.03-7.485c1.536-1.123 5.918-3.786 10.247-1.368.37.208.728.511 1.092.928.903 1.036 3.166 1.663 6.919 1.916 1.104.075 1.509.337 1.553.385-.001.056-.11.348-.63.76-1.25 1.031-4.57 2.197-8.16.936a.938.938 0 0 0-.898 1.615c.147.1.305.171.47.232.609.227 1.242.38 1.89.437 6.752.587 9.916-1.452 9.916-1.452l4.27-2.664 2.628-1.474q.045-.025.087-.055a1.44 1.44 0 0 1 1.158-.237c.398.088.729.327.937.676.22.368.138.927-.165 1.231M24.372 15.235a3.93 3.93 0 0 0 3.928-3.927 3.93 3.93 0 0 0-3.928-3.928 3.93 3.93 0 0 0-3.927 3.928 3.93 3.93 0 0 0 3.927 3.927m0-5.98c1.132 0 2.053.92 2.053 2.053a2.055 2.055 0 0 1-2.053 2.052 2.055 2.055 0 0 1-2.052-2.052c0-1.132.92-2.053 2.052-2.053"/><path d="m15.289 13.622.68.17q.16.542.39 1.06l-.4.544a1.85 1.85 0 0 0 .076 2.29l.674.801a1.85 1.85 0 0 0 2.242.469l.63-.313a8.7 8.7 0 0 0 2.303 1.067l.157.656c.198.835.935 1.42 1.794 1.425l1.046.006h.01a1.85 1.85 0 0 0 1.8-1.406l.17-.68a8.6 8.6 0 0 0 2.16-.976l.596.318a1.85 1.85 0 0 0 2.255-.4l.698-.78a1.85 1.85 0 0 0 .146-2.286l-.4-.582q.274-.587.457-1.21l.676-.164a1.85 1.85 0 0 0 1.416-1.8v-1.047a1.85 1.85 0 0 0-1.414-1.801l-.678-.166a9 9 0 0 0-.388-1.056l.408-.563a1.85 1.85 0 0 0-.089-2.289l-.677-.797a1.85 1.85 0 0 0-2.245-.457l-.624.313a8.7 8.7 0 0 0-2.3-1.064l-.166-.676A1.85 1.85 0 0 0 24.89.814h-1.046c-.856 0-1.597.582-1.802 1.415l-.165.678a8.7 8.7 0 0 0-2.143.966l-.617-.325a1.85 1.85 0 0 0-2.253.41l-.694.785a1.85 1.85 0 0 0-.134 2.286l.396.57q-.277.592-.462 1.217l-.658.157a1.85 1.85 0 0 0-1.425 1.793l-.006 1.046a1.856 1.856 0 0 0 1.408 1.81m1.665-3.112a.94.94 0 0 0 .698-.707 7 7 0 0 1 .692-1.824.94.94 0 0 0-.05-.989l-.717-1.004.668-.78 1.112.587a.94.94 0 0 0 .987-.07 6.8 6.8 0 0 1 2.519-1.135.94.94 0 0 0 .706-.692l.278-1.206 1.027-.016.297 1.22a.94.94 0 0 0 .707.693c.96.214 1.848.624 2.637 1.22a.94.94 0 0 0 .985.089l1.1-.57.677.772-.738 1.017a.94.94 0 0 0-.07.988c.282.534.493 1.105.625 1.698a.94.94 0 0 0 .692.705l1.206.295.015 1.01-1.22.297a.94.94 0 0 0-.693.707 7 7 0 0 1-.685 1.81.94.94 0 0 0 .048.984l.717 1.016-.672.774-1.094-.584a.94.94 0 0 0-.993.068 6.8 6.8 0 0 1-2.533 1.145.94.94 0 0 0-.705.688l-.285 1.205-1.026.01-.288-1.205a.94.94 0 0 0-.708-.698 6.8 6.8 0 0 1-2.64-1.221.94.94 0 0 0-.981-.092l-1.105.565-.672-.776.732-.999a.94.94 0 0 0 .073-.991 6.8 6.8 0 0 1-.625-1.7.94.94 0 0 0-.688-.706l-1.206-.285-.01-1.027z"/></g><defs><clipPath id="a"><path fill="#fff" d="M0 0h40v40H0z"/></clipPath></defs></svg>
